assets/Improvement.svg

<svg width="121" height="121" viewBox="0 0 121 121" fill="none" xmlns="http://www.w3.org/2000/svg">
<rect width="121" height="121" rx="35" fill="#FFF2F8"/>
<path d="M34.4584 65.4996L34.4167 85.0413C34.4167 90.333 38.5001 95.9996 43.5001 97.6663L56.7917 102.083C59.0834 102.833 62.8751 102.833 65.2084 102.083L78.5001 97.6663C83.5001 95.9996 87.5834 90.333 87.5834 85.0413V65.708" stroke="#FF007A" stroke-width="5" stroke-linecap="round" stroke-linejoin="round"/>
<path d="M36.0001 32.5413L27.7917 37.9163C19.7501 43.1663 19.7501 54.9163 27.7917 60.1663L52.8751 76.5413C57.3751 79.4997 64.7917 79.4997 69.2917 76.5413L94.2501 60.1663C102.25 54.9163 102.25 43.208 94.2501 37.958L69.2917 21.583C64.7917 18.6247 57.3751 18.6247 52.8751 21.583" stroke="#FF007A" stroke-width="5" stroke-linecap="round" stroke-linejoin="round"/>
<path d="M100.167 73.5V48.5" stroke="#FF007A" stroke-width="5" stroke-linecap="round" stroke-linejoin="round"/>
</svg>

<svg xmlns="http://www.w3.org/2000/svg" width="121" height="121" fill="none" xmlns:v="https://vecta.io/nano"><rect width="121" height="121" rx="35" fill="#fff2f8"/><g stroke="#ff007a" stroke-width="5" stroke-linecap="round" stroke-linejoin="round"><path d="M34.458 65.5l-.042 19.542c0 5.292 4.083 10.958 9.083 12.625l13.292 4.417c2.292.75 6.083.75 8.417 0L78.5 97.666c5-1.667 9.083-7.333 9.083-12.625V65.708M36 32.541l-8.208 5.375c-8.042 5.25-8.042 17 0 22.25l25.083 16.375c4.5 2.958 11.917 2.958 16.417 0L94.25 60.166c8-5.25 8-16.958 0-22.208L69.292 21.583c-4.5-2.958-11.917-2.958-16.417 0"/><path d="M100.167 73.5v-25"/></g></svg>
